X: 357
T:Fors seulement II
N: Derived from Jos2816-Fors_seulement_II.krn
C: Josquin des Prez
%%abc-version 2.0
%%abcx-abcm2ps-target-version 5.9.1 (29 Sep 2008)
%%abc-creator hum2abc beta
%%abcx-conversion-date 2019/02/12 16:15:54
%%abc-edited-by Jesse Rodin
%%abc-edited-by Jesse Rodin
%%abcx-initial-encoding-date 2015/09/08/
%%humdrum-veritas 2291063196
%%humdrum-veritas-data 3562756462
%%linebreak <none>
%%barnumbers 0
L: 1/4
M: 2/1
Q: 1/2=120
%%staves [1 2 3 4]
V: 1 clef=treble
V: 2 clef=treble
V: 3 clef=treble-8
V: 4 clef=bass
K: C
[V:1] A8 | 
[V:2] z8 | 
[V:3] z8 | 
[V:4] D,4D,2D,2 | 
[V:1] A4A4 | 
[V:2] z8 | 
[V:3] A4A2A2 | 
[V:4] D,6C,B,, | 
[V:1] c8- | 
[V:2] A4A2A2 | 
[V:3] A6GF | 
[V:4] A,,8 | 
[V:1] c4c4 | 
[V:2] A6GF | 
[V:3] E4z2A2 | 
[V:4] A,,4A,,4 | 
[V:1] e4e4 | 
[V:2] E4E4 | 
[V:3] c2c2G3A | 
[V:4] z2A,,2C,2C,2 | 
[V:1] d6cB | 
[V:2] G4G4 | 
[V:3] B2G2B3c | 
[V:4] G,,3G,,G,,2G,,2 | 
[V:1] A4A4 | 
[V:2] F2EDF4 | 
[V:3] d4z2A2 | 
[V:4] D,8 | 
[V:1] G4F4 | 
[V:2] E4D4- | 
[V:3] c4d4 | 
[V:4] z8 | 
[V:1] E8 | 
[V:2] D4^C4 | 
[V:3] G4A4 | 
[V:4] z8 | 
[V:1] D6CB, | 
[V:2] D2FGA_BA2- | 
[V:3] D3EFGAB | 
[V:4] z8 | 
[V:1] A,8 | 
[V:2] A2GFE4 | 
[V:3] cAd4^c2 | 
[V:4] z4A,4 | 
[V:1] z8 | 
[V:2] D4z2_B2- | 
[V:3] d4z2d2 | 
[V:4] _B,3A,F,2G,2- | 
[V:1] z8 | 
[V:2] BAA4G2 | 
[V:3] d4B4 | 
[V:4] G,F,D,2E,4 | 
[V:1] z8 | 
[V:2] A4z4 | 
[V:3] AGABcAB2- | 
[V:4] F,3E,C,2D,2- | 
[V:1] z8 | 
[V:2] z4z2B2 | 
[V:3] BAA4^G2 | 
[V:4] D,C,A,,2B,,4 | 
[V:1] z8 | 
[V:2] c3BG2B2- | 
[V:3] AGABc2G2 | 
[V:4] A,,4z4 | 
[V:1] z8 | 
[V:2] BAG4^F2 | 
[V:3] B2c2A4 | 
[V:4] z4z2A,2 | 
[V:1] D8- | 
[V:2] G4z2_B2- | 
[V:3] G3FD2d2- | 
[V:4] _B,3A,F,2G,2- | 
[V:1] D4B,4 | 
[V:2] BAA4G2 | 
[V:3] def2e4 | 
[V:4] G,F,D,2E,4 | 
[V:1] A,8 | 
[V:2] A4z2F2- | 
[V:3] c4z2A2 | 
[V:4] F,3E,C,2D,2- | 
[V:1] z8 | 
[V:2] FEDCD4 | 
[V:3] B2A3^G^G^F | 
[V:4] D,C,A,,2B,,4 | 
[V:1] z4A,4 | 
[V:2] C3DE2F2- | 
[V:3] A3Bc2A2 | 
[V:4] A,,4z4 | 
[V:1] B,4C4 | 
[V:2] F2G2E4 | 
[V:3] d2G2A4 | 
[V:4] z4A,4 | 
[V:1] D8 | 
[V:2] D4z2_B2- | 
[V:3] z4d4 | 
[V:4] _B,3A,F,2G,2- | 
[V:1] z8 | 
[V:2] BAF2G3F | 
[V:3] d3cBAB2- | 
[V:4] G,F,D,2E,4 | 
[V:1] G8 | 
[V:2] D2E3DB,2 | 
[V:3] BGc2B4 | 
[V:4] z2E,2E,4 | 
[V:1] A4A4 | 
[V:2] C3DE2F2 | 
[V:3] z2A2c3d | 
[V:4] A,,8 | 
[V:1] c3de2f2- | 
[V:2] E2A2G2A2- | 
[V:3] e2f2e2A2 | 
[V:4] z4z2D,2 | 
[V:1] fed2c3B | 
[V:2] A2GFE4 | 
[V:3] z2B2c4 | 
[V:4] F,2G,2A,4 | 
[V:1] d4A4- | 
[V:2] z4D4 | 
[V:3] B2A4GF | 
[V:4] D,8 | 
[V:1] A2GFE4 | 
[V:2] C4C4 | 
[V:3] A8 | 
[V:4] A,,8 | 
[V:1] D6CB, | 
[V:2] D4F4- | 
[V:3] F4A4- | 
[V:4] z4D,4 | 
[V:1] A,8 | 
[V:2] F4E4 | 
[V:3] A2B2c4 | 
[V:4] D,4C,4 | 
[V:1] A4c4 | 
[V:2] D3C/B,/A,F,F2- | 
[V:3] z4c4 | 
[V:4] F,4A,4 | 
[V:1] B8 | 
[V:2] F2EDE4 | 
[V:3] d4B4 | 
[V:4] G,8 | 
[V:1] A8 | 
[V:2] F8 | 
[V:3] c6BA | 
[V:4] F,8 | 
[V:1] z4A4 | 
[V:2] z8 | 
[V:3] GABcA2c2 | 
[V:4] E,4F,4 | 
[V:1] E8 | 
[V:2] z4A4 | 
[V:3] B2d4^c2 | 
[V:4] G,4A,4 | 
[V:1] F4D4- | 
[V:2] A3GAGB2- | 
[V:3] d4z4 | 
[V:4] D,4z2G,2- | 
[V:1] D2A,2B,2C2 | 
[V:2] BAc2B2A2- | 
[V:3] z8 | 
[V:4] G,2F,2G,2F,2- | 
[V:1] D2E2A,4 | 
[V:2] A2G2A4 | 
[V:3] z2G2c4 | 
[V:4] F,2E,2F,3E, | 
[V:1] A6B2 | 
[V:2] z8 | 
[V:3] F3EF2G2 | 
[V:4] D,2C,2D,2G,,2 | 
[V:1] c4d4 | 
[V:2] z8 | 
[V:3] FEA4^G2 | 
[V:4] A,,2C,2B,,4 | 
[V:1] c6A2- | 
[V:2] A4c4- | 
[V:3] A2c6 | 
[V:4] A,,8 | 
[V:1] A4F4 | 
[V:2] c2A6 | 
[V:3] A6F2- | 
[V:4] z8 | 
[V:1] A4G4 | 
[V:2] F4c4- | 
[V:3] F2f4e2 | 
[V:4] z4C,4 | 
[V:1] F8 | 
[V:2] c2A4d2- | 
[V:3] f4z4 | 
[V:4] F,3G,A,F,_B,2- | 
[V:1] _B4B4 | 
[V:2] dc_BAG4 | 
[V:3] z8 | 
[V:4] B,A,G,F,E,3D, | 
[V:1] A4F4 | 
[V:2] F4z4 | 
[V:3] A3_BcAd2- | 
[V:4] F,3G,A,F,_B,2- | 
[V:1] z4G4 | 
[V:2] z4_B4 | 
[V:3] dc_BAG4 | 
[V:4] B,A,G,F,E,3D, | 
[V:1] A8 | 
[V:2] A3_BcAd2- | 
[V:3] F4z2A2 | 
[V:4] F,6D,2 | 
[V:1] G4E4 | 
[V:2] dc_BAG4 | 
[V:3] _B2d2c4 | 
[V:4] _B,,4C,4 | 
[V:1] F8- | 
[V:2] F4z4 | 
[V:3] A2_B3Ad2- | 
[V:4] z4D,4 | 
[V:1] F4E4 | 
[V:2] z8 | 
[V:3] dc_BAG4 | 
[V:4] _B,,4C,4 | 
[V:1] z4F4- | 
[V:2] A8 | 
[V:3] F4z2D2 | 
[V:4] D,8 | 
[V:1] F8- | 
[V:2] A4A4 | 
[V:3] F3GA2F2 | 
[V:4] z4D,4 | 
[V:1] F4D4 | 
[V:2] _B8 | 
[V:3] _B3cd3e | 
[V:4] _B,,4G,,4 | 
[V:1] A,8 | 
[V:2] A8 | 
[V:3] f3ed2c2 | 
[V:4] D,4F,3E, | 
[V:1] z8 | 
[V:2] z4D4 | 
[V:3] B2A4^G2 | 
[V:4] D,2C,2B,,4 | 
[V:1] A,8 | 
[V:2] C3DE2F2 | 
[V:3] A4z2F2 | 
[V:4] A,,4z2A,2 | 
[V:1] D8- | 
[V:2] D2A2_B3A | 
[V:3] G3FG2A2 | 
[V:4] _B,3A,G,2F,2 | 
[V:1] D8- | 
[V:2] G2F2G2A2 | 
[V:3] _B3AG2F2 | 
[V:4] G,2A,2_B,3A, | 
[V:1] D8 | 
[V:2] _B3AGFA2- | 
[V:3] G2A2_B2A2 | 
[V:4] G,2F,2G,2D,2 | 
[V:1] B,4A,4 | 
[V:2] A2G2A4 | 
[V:3] e4c4 | 
[V:4] E,4F,4 | 
[V:1] C8 | 
[V:2] G4c4 | 
[V:3] e8 | 
[V:4] C,4z2A,,2 | 
[V:1] E8 | 
[V:2] C2E3FG2- | 
[V:3] z2E2G3A | 
[V:4] C,3D,E,3F, | 
[V:1] D8 | 
[V:2] GFD3EF2- | 
[V:3] B3cd3c | 
[V:4] G,3F,D,3E, | 
[V:1] A8 | 
[V:2] FGA3Bc2- | 
[V:3] A3Bcde2- | 
[V:4] F,3G,A,4 | 
[V:1] E8 | 
[V:2] cBA4^G2 | 
[V:3] e2dcB4 | 
[V:4] A,,4E,4 | 
[V:1] A,8- | 
[V:2] A8- | 
[V:3] A8- | 
[V:4] F,3E,C,2D,2- | 
[V:1] A,8 |]  
[V:2] A8 |]  
[V:3] A8 |]  
[V:4] D,2C,B,,A,,4 |]  



